svgs/sharp-solid/chalkboard.svg

<svg xmlns="http://www.w3.org/2000/svg" viewBox="0 0 576 512"><!--! Font Awesome Pro 6.6.0 by @fontawesome - https://fontawesome.com License - https://fontawesome.com/license (Commercial License) Copyright 2024 Fonticons, Inc. --><path d="M64 32L32 32l0 32 0 320 64 0L96 96l384 0 0 288 64 0 0-320 0-32-32 0L64 32zM224 352l0 64L32 416 0 416l0 64 32 0 512 0 32 0 0-64-32 0-128 0 0-64-192 0z"/></svg>

<svg xmlns="http://www.w3.org/2000/svg" viewBox="0 0 576 512"><!--! Font Awesome Pro 6.4.2 by @fontawesome - https://fontawesome.com License - https://fontawesome.com/license (Commercial License) Copyright 2023 Fonticons, Inc. --><path d="M64 32H32V64 384H96V96H480V384h64V64 32H512 64zM224 352v64H32 0v64H32 544h32V416H544 416V352H224z"/></svg>
